en/_assets/data-transfer/tutorials/migration.svg

<svg width="500" height="200" viewBox="0 0 500 200" fill="none" xmlns="http://www.w3.org/2000/svg">
<rect width="500" height="200" fill="white"/>
<path d="M156.8 67H270.8C275.2 67 278.8 70.6 278.8 75V119C278.8 123.4 275.2 127 270.8 127H156.8C152.4 127 148.8 123.4 148.8 119V75C148.8 70.5 152.4 67 156.8 67Z" fill="#FFF2BF"/>
<path d="M178.1 92.3999H181C181.6 92.3999 182.1 92.4999 182.6 92.5999C183.1 92.6999 183.5 92.9999 183.9 93.2999C184.3 93.5999 184.6 93.9999 184.8 94.4999C185 94.9999 185.1 95.5999 185.1 96.3999C185.1 97.1999 185 97.7999 184.8 98.3999C184.6 98.9999 184.3 99.4999 183.9 99.7999C183.5 100.1 183.1 100.5 182.6 100.7C182.1 100.9 181.5 101 180.9 101H178.1V92.3999ZM179.3 93.3999V99.9999H180.9C181.3 99.9999 181.7 99.8999 182.1 99.7999C182.5 99.6999 182.8 99.4999 183 99.1999C183.3 98.8999 183.5 98.5999 183.6 98.0999C183.7 97.6999 183.8 97.0999 183.8 96.4999C183.8 95.8999 183.7 95.3999 183.6 94.9999C183.5 94.5999 183.3 94.2999 183 94.0999C182.7 93.8999 182.4 93.6999 182.1 93.5999C181.7 93.4999 181.4 93.4999 181 93.4999H179.3V93.3999Z" fill="#262626"/>
<path d="M190.1 99.8C190 99.9 189.9 100.1 189.8 100.3C189.7 100.5 189.5 100.6 189.4 100.7C189.3 100.8 189 100.9 188.8 101C188.6 101.1 188.3 101.1 188 101.1C187.4 101.1 187 100.9 186.6 100.6C186.3 100.3 186.1 99.8 186.1 99.2C186.1 98.5 186.3 98 186.8 97.7C187.3 97.4 188 97.2 188.8 97.2H190V96.7C190 96.3 189.9 96 189.7 95.8C189.5 95.6 189.1 95.5 188.5 95.5C188.1 95.5 187.8 95.6 187.4 95.7C187.1 95.8 186.7 96 186.5 96.1V95.2C186.7 95.1 187 94.9 187.4 94.8C187.8 94.7 188.2 94.6 188.7 94.6C189.5 94.6 190.1 94.8 190.5 95.1C190.9 95.4 191.1 95.9 191.1 96.6V99.9C191.1 100 191.1 100.1 191.1 100.1C191.1 100.2 191.1 100.3 191.1 100.4C191.1 100.5 191.1 100.6 191.1 100.7C191.1 100.8 191.1 100.9 191.1 100.9H190.1C190.1 100.8 190.1 100.6 190 100.4C190 100.2 190 100 190 99.9L190.1 99.8ZM188.2 100.1C188.5 100.1 188.8 100 189 99.9C189.2 99.8 189.4 99.6 189.6 99.4C189.7 99.2 189.8 99 189.9 98.9C190 98.7 190 98.6 190 98.5V98H189C188.4 98 187.9 98.1 187.6 98.3C187.3 98.5 187.2 98.8 187.2 99.1C187.2 99.4 187.3 99.6 187.5 99.8C187.6 100.1 187.9 100.1 188.2 100.1Z" fill="#262626"/>
<path d="M195.3 101C195.1 101 194.9 101.1 194.7 101.1C194.4 101.1 194.1 101.1 193.9 101C193.7 100.9 193.5 100.8 193.4 100.6C193.3 100.5 193.2 100.3 193.1 100.1C193 99.8999 193 99.6999 193 99.4999V95.5999H192.3V94.6999H193V93.3999H194.1V94.6999H195.9V95.5999H194.1V99.3999C194.1 99.6999 194.2 99.8999 194.3 99.9999C194.4 100.1 194.7 100.2 195 100.2C195.3 100.2 195.6 100.1 195.9 99.8999V100.9C195.7 100.9 195.5 101 195.3 101Z" fill="#262626"/>
<path d="M200.9 99.8C200.8 99.9 200.7 100.1 200.6 100.3C200.5 100.5 200.3 100.6 200.2 100.7C200.1 100.8 199.8 100.9 199.6 101C199.4 101.1 199.1 101.1 198.8 101.1C198.2 101.1 197.8 100.9 197.4 100.6C197.1 100.3 196.9 99.8 196.9 99.2C196.9 98.5 197.1 98 197.6 97.7C198.1 97.4 198.8 97.2 199.6 97.2H200.8V96.7C200.8 96.3 200.7 96 200.5 95.8C200.3 95.6 199.9 95.5 199.3 95.5C198.9 95.5 198.6 95.6 198.2 95.7C197.9 95.8 197.5 96 197.3 96.1V95.2C197.5 95.1 197.8 94.9 198.2 94.8C198.6 94.7 199 94.6 199.5 94.6C200.3 94.6 200.9 94.8 201.3 95.1C201.7 95.4 201.9 95.9 201.9 96.6V99.9C201.9 100 201.9 100.1 201.9 100.1C201.9 100.2 201.9 100.3 201.9 100.4C201.9 100.5 201.9 100.6 201.9 100.7C201.9 100.8 201.9 100.9 201.9 100.9H200.9C200.9 100.8 200.9 100.6 200.8 100.4C200.8 100.2 200.8 100 200.8 99.9L200.9 99.8ZM199 100.1C199.3 100.1 199.6 100 199.8 99.9C200 99.8 200.2 99.6 200.4 99.4C200.5 99.2 200.6 99 200.7 98.9C200.8 98.7 200.8 98.6 200.8 98.5V98H199.7C199.1 98 198.6 98.1 198.3 98.3C198 98.5 197.9 98.8 197.9 99.1C197.9 99.4 198 99.6 198.2 99.8C198.4 100.1 198.6 100.1 199 100.1Z" fill="#262626"/>
<path d="M209.5 93.3999V101H208.4V93.3999H205.7V92.3999H212.1V93.3999H209.5Z" fill="#262626"/>
<path d="M214.5 96.0999C214.1 96.2999 213.9 96.6 213.7 97V101H212.6V94.7999H213.5L213.6 96.2C213.8 95.8 214 95.5 214.4 95.2C214.7 94.9 215.2 94.8 215.7 94.7V95.8999C215.3 95.7999 214.9 95.8999 214.5 96.0999Z" fill="#262626"/>
<path d="M220.5 99.8C220.4 99.9 220.3 100.1 220.2 100.3C220.1 100.5 219.9 100.6 219.8 100.7C219.7 100.8 219.4 100.9 219.2 101C219 101.1 218.7 101.1 218.4 101.1C217.8 101.1 217.4 100.9 217 100.6C216.7 100.3 216.5 99.8 216.5 99.2C216.5 98.5 216.7 98 217.2 97.7C217.7 97.4 218.4 97.2 219.2 97.2H220.4V96.7C220.4 96.3 220.3 96 220.1 95.8C219.9 95.6 219.5 95.5 218.9 95.5C218.5 95.5 218.2 95.6 217.8 95.7C217.5 95.8 217.1 96 216.9 96.1V95.2C217.1 95.1 217.4 94.9 217.8 94.8C218.2 94.7 218.6 94.6 219.1 94.6C219.9 94.6 220.5 94.8 220.9 95.1C221.3 95.4 221.5 95.9 221.5 96.6V99.9C221.5 100 221.5 100.1 221.5 100.1C221.5 100.2 221.5 100.3 221.5 100.4C221.5 100.5 221.5 100.6 221.5 100.7C221.5 100.8 221.5 100.9 221.5 100.9H220.5C220.5 100.8 220.5 100.6 220.4 100.4C220.4 100.2 220.4 100 220.4 99.9L220.5 99.8ZM218.7 100.1C219 100.1 219.3 100 219.5 99.9C219.7 99.8 219.9 99.6 220.1 99.4C220.2 99.2 220.3 99 220.4 98.9C220.5 98.7 220.5 98.6 220.5 98.5V98H219.4C218.8 98 218.3 98.1 218 98.3C217.7 98.5 217.6 98.8 217.6 99.1C217.6 99.4 217.7 99.6 217.9 99.8C218.1 100.1 218.3 100.1 218.7 100.1Z" fill="#262626"/>
<path d="M226.2 95.6C225.7 95.6 225.3 95.7 225 95.9C224.7 96.1 224.5 96.4 224.3 96.7V100.9H223.2V94.7H224.2V95.8C224.4 95.4 224.6 95.1 225 94.9C225.4 94.7 225.8 94.6 226.4 94.6C227 94.6 227.5 94.8 227.9 95.1C228.3 95.4 228.4 95.9 228.4 96.6V101H227.3V96.7C227.3 96.3 227.2 96 227 95.8C226.8 95.6 226.5 95.6 226.2 95.6Z" fill="#262626"/>
<path d="M232.1 101.1C231.8 101.1 231.5 101.1 231.2 101C230.9 100.9 230.7 100.9 230.5 100.8C230.3 100.7 230.2 100.6 230 100.6C229.8 100.6 229.8 100.4 229.7 100.4V99.3999C229.8 99.4999 229.9 99.5999 230 99.6999C230.1 99.7999 230.3 99.8999 230.5 99.9999C230.7 100.1 230.9 100.1 231.2 100.2C231.4 100.3 231.7 100.3 232 100.3C232.4 100.3 232.8 100.2 233.1 100.1C233.4 99.9999 233.5 99.6999 233.5 99.3999C233.5 99.1999 233.5 99.0999 233.4 98.9999C233.3 98.8999 233.2 98.7999 233.1 98.6999C233 98.5999 232.8 98.5999 232.6 98.4999C232.4 98.3999 232.2 98.3999 232 98.3999C231.7 98.2999 231.5 98.2999 231.2 98.1999C230.9 98.0999 230.7 97.9999 230.5 97.8999C230.3 97.7999 230.1 97.5999 230 97.3999C229.9 97.1999 229.8 96.8999 229.8 96.5999C229.8 95.9999 230 95.5999 230.5 95.2999C231 94.9999 231.5 94.7999 232.3 94.7999C232.7 94.7999 233.1 94.7999 233.5 94.8999C233.8 94.9999 234.1 95.0999 234.3 95.1999V96.0999C234.1 95.9999 233.8 95.7999 233.5 95.7999C233.2 95.6999 232.8 95.6999 232.4 95.6999C231.9 95.6999 231.6 95.7999 231.3 95.8999C231 95.9999 230.9 96.2999 230.9 96.5999C230.9 96.7999 230.9 96.8999 231 96.9999C231.1 97.0999 231.2 97.1999 231.3 97.1999C231.4 97.2999 231.6 97.2999 231.7 97.2999C231.8 97.2999 232 97.3999 232.2 97.3999C232.5 97.4999 232.8 97.4999 233 97.5999C233.3 97.6999 233.5 97.7999 233.8 97.8999C234.1 97.9999 234.2 98.1999 234.4 98.3999C234.5 98.5999 234.6 98.8999 234.6 99.2999C234.6 99.6999 234.5 99.9999 234.4 100.2C234.3 100.4 234.1 100.6 233.8 100.8C233.6 100.9 233.3 101 233 101.1C232.7 101.1 232.4 101.1 232.1 101.1Z" fill="#262626"/>
<path d="M237.3 95.5999V100.9H236.2V95.5999H235.4V94.7H236.2V94.5C236.2 93.8 236.4 93.1999 236.8 92.7999C237.2 92.3999 237.7 92.2 238.4 92.2C238.7 92.2 239 92.1999 239.2 92.2999V93.2C239.1 93.2 239 93.0999 238.9 93.0999C238.8 93.0999 238.6 93.0999 238.5 93.0999C238.1 93.0999 237.8 93.1999 237.6 93.3999C237.4 93.5999 237.3 94 237.3 94.5V94.7H239.1V95.5999H237.3Z" fill="#262626"/>
<path d="M245.1 100.4C245 100.5 244.9 100.5 244.8 100.6C244.7 100.7 244.5 100.7 244.3 100.8C244.1 100.9 243.9 100.9 243.7 101C243.5 101 243.2 101.1 242.9 101.1C241.9 101.1 241.1 100.8 240.5 100.2C240 99.6 239.7 98.8 239.7 97.8C239.7 97.3 239.8 96.8 239.9 96.4C240 96 240.3 95.7 240.5 95.4C240.8 95.1 241.1 94.9 241.4 94.8C241.8 94.7 242.2 94.6 242.6 94.6C243 94.6 243.4 94.7 243.8 94.8C244.2 94.9 244.4 95.2 244.7 95.5C245 95.8 245.1 96.2 245.2 96.6C245.3 97 245.3 97.5 245.2 98.1H240.8C240.8 98.8 241 99.3 241.4 99.6C241.8 99.9 242.3 100.1 243 100.1C243.5 100.1 243.9 100 244.2 99.9C244.5 99.8 244.8 99.6 245.1 99.5V100.4ZM242.6 95.6C242.1 95.6 241.8 95.7 241.4 96C241 96.3 240.9 96.7 240.8 97.3H244.1C244.1 96.7 244 96.3 243.7 96C243.5 95.7 243.1 95.6 242.6 95.6Z" fill="#262626"/>
<path d="M248.3 96.0999C247.9 96.2999 247.7 96.6 247.5 97V101H246.4V94.7999H247.3L247.4 96.2C247.6 95.8 247.8 95.5 248.2 95.2C248.5 94.9 249 94.8 249.5 94.7V95.8999C249.1 95.7999 248.7 95.8999 248.3 96.0999Z" fill="#262626"/>
<path d="M67 81.4C75.8 81.4 83 88.6 83 97.4C83 106.2 75.8 113.4 67 113.4C58.2 113.4 51 106.2 51 97.4C51 88.5 58.2 81.4 67 81.4Z" fill="#5282FF"/>
<path fill-rule="evenodd" clip-rule="evenodd" d="M60.4 90.5C60.1 90.8 60 91.1 60 91.3C60 91.5 60.1 91.8 60.4 92.1C60.7 92.4 61.2 92.7 61.8 93C63.1 93.5 64.9 93.9 67 93.9C69 93.9 70.9 93.6 72.2 93C72.8 92.7 73.3 92.4 73.6 92.1C73.9 91.8 74 91.5 74 91.3C74 91.1 73.9 90.8 73.6 90.5C73.3 90.2 72.8 89.9 72.2 89.6C70.9 89.1 69.1 88.7 67 88.7C65 88.7 63.1 89 61.8 89.6C61.2 89.9 60.7 90.2 60.4 90.5ZM59.5 89.6C59 90.1 58.7 90.6 58.7 91.3V97V102.7C58.7 103.4 59 103.9 59.5 104.4C60 104.9 60.6 105.2 61.3 105.5C62.8 106.1 64.8 106.5 66.9 106.5C69.1 106.5 71.1 106.1 72.5 105.5C73.2 105.2 73.9 104.8 74.3 104.4C74.8 103.9 75.1 103.4 75.1 102.7V97V91.3C75.1 90.6 74.8 90.1 74.3 89.6C73.8 89.1 73.2 88.8 72.5 88.5C71 87.9 69 87.5 66.9 87.5C64.7 87.5 62.7 87.9 61.3 88.5C60.6 88.8 60 89.2 59.5 89.6ZM74 99.1V102.7C74 102.9 73.9 103.2 73.6 103.5C73.3 103.8 72.8 104.1 72.2 104.4C70.9 104.9 69.1 105.3 67 105.3C65 105.3 63.1 105 61.8 104.4C61.2 104.1 60.7 103.8 60.4 103.5C60.1 103.2 60 102.9 60 102.7V99.1C60.4 99.4 60.8 99.6 61.4 99.8C62.9 100.4 64.9 100.8 67 100.8C69.2 100.8 71.2 100.4 72.6 99.8C73.2 99.7 73.6 99.4 74 99.1ZM60 97C60 97.2 60.1 97.5 60.4 97.8C60.7 98.1 61.2 98.4 61.8 98.7C63.1 99.2 64.9 99.6 67 99.6C69 99.6 70.9 99.3 72.2 98.7C72.8 98.4 73.3 98.1 73.6 97.8C73.9 97.5 74 97.2 74 97V93.4C73.6 93.7 73.2 93.9 72.6 94.1C71.1 94.7 69.1 95.1 67 95.1C64.8 95.1 62.8 94.7 61.4 94.1C60.9 93.9 60.4 93.6 60 93.4V97Z" fill="white"/>
<path d="M398 81C406.8 81 414 88.2 414 97C414 105.8 406.8 113 398 113C389.2 113 382 105.8 382 97C382 88.1 389.2 81 398 81Z" fill="#5282FF"/>
<path fill-rule="evenodd" clip-rule="evenodd" d="M391.4 90.1C391.1 90.4 391 90.7 391 90.9C391 91.1 391.1 91.4 391.4 91.7C391.7 92 392.2 92.3 392.8 92.6C394.1 93.1 395.9 93.5 398 93.5C400 93.5 401.9 93.2 403.2 92.6C403.8 92.3 404.3 92 404.6 91.7C404.9 91.4 405 91.1 405 90.9C405 90.7 404.9 90.4 404.6 90.1C404.3 89.8 403.8 89.5 403.2 89.2C401.9 88.7 400.1 88.3 398 88.3C396 88.3 394.1 88.6 392.8 89.2C392.2 89.5 391.7 89.8 391.4 90.1ZM390.5 89.2C390 89.7 389.7 90.2 389.7 90.9V96.6V102.3C389.7 103 390 103.5 390.5 104C391 104.5 391.6 104.8 392.3 105.1C393.8 105.7 395.8 106.1 397.9 106.1C400.1 106.1 402.1 105.7 403.5 105.1C404.2 104.8 404.9 104.4 405.3 104C405.8 103.5 406.1 103 406.1 102.3V96.6V90.9C406.1 90.2 405.8 89.7 405.3 89.2C404.8 88.7 404.2 88.4 403.5 88.1C402 87.5 400 87.1 397.9 87.1C395.7 87.1 393.7 87.5 392.3 88.1C391.6 88.4 391 88.8 390.5 89.2ZM405 98.7V102.3C405 102.5 404.9 102.8 404.6 103.1C404.3 103.4 403.8 103.7 403.2 104C401.9 104.5 400.1 104.9 398 104.9C396 104.9 394.1 104.6 392.8 104C392.2 103.7 391.7 103.4 391.4 103.1C391.1 102.8 391 102.5 391 102.3V98.7C391.4 99 391.8 99.2 392.4 99.4C393.9 100 395.9 100.4 398 100.4C400.2 100.4 402.2 100 403.6 99.4C404.2 99.3 404.6 99 405 98.7ZM391 96.6C391 96.8 391.1 97.1 391.4 97.4C391.7 97.7 392.2 98 392.8 98.3C394.1 98.8 395.9 99.2 398 99.2C400 99.2 401.9 98.9 403.2 98.3C403.8 98 404.3 97.7 404.6 97.4C404.9 97.1 405 96.8 405 96.6V93C404.6 93.3 404.2 93.5 403.6 93.7C402.1 94.3 400.1 94.7 398 94.7C395.8 94.7 393.8 94.3 392.4 93.7C391.9 93.5 391.4 93.2 391 93V96.6Z" fill="white"/>
<path d="M145 97.4L140 94.5133L140 100.287L145 97.4ZM89 97.9L140.5 97.9L140.5 96.9L89 96.9L89 97.9Z" fill="#262626"/>
<path d="M339 97.4L334 94.5133L334 100.287L339 97.4ZM283 97.9L334.5 97.9L334.5 96.9L283 96.9L283 97.9Z" fill="#262626"/>
<path d="M383.238 78.4674C367.814 73.4862 360.687 83.2137 360.5 88.2101C353.505 87.948 345.5 91 345.5 100C345.5 109 353.511 111.071 360.5 111.5C366 120 377.073 120.994 383.238 116.722C393 125 408.5 123.5 415.5 116.722C426.557 120.739 433.026 114.419 436.019 110.195C442.015 110.419 449.697 105.704 449.922 99.7081C450.147 93.7123 443.838 88.4723 436.843 88.2101C434.42 78.1123 422.803 75.6754 417.194 78.4673C402.395 67.5052 387 73 383.238 78.4674Z" stroke="#5282FF"/>
</svg>

<svg xmlns="http://www.w3.org/2000/svg" width="500" height="200" fill="none" viewBox="0 0 500 200">
    <path fill="#fff" d="M0 0h500v200H0z"/>
    <path fill="#FFF2BF" d="M156.8 67h114c4.4 0 8 3.6 8 8v44c0 4.4-3.6 8-8 8h-114c-4.4 0-8-3.6-8-8V75c0-4.5 3.6-8 8-8Z"/>
    <path fill="#262626" d="M178.1 92.4h2.9c.6 0 1.1.1 1.6.2s.9.4 1.3.7c.4.3.7.7.9 1.2.2.5.3 1.1.3 1.9 0 .8-.1 1.4-.3 2-.2.6-.5 1.1-.9 1.4-.4.3-.8.7-1.3.9-.5.2-1.1.3-1.7.3h-2.8v-8.6Zm1.2 1v6.6h1.6c.4 0 .8-.1 1.2-.2.4-.1.7-.3.9-.6.3-.3.5-.6.6-1.1.1-.4.2-1 .2-1.6 0-.6-.1-1.1-.2-1.5-.1-.4-.3-.7-.6-.9-.3-.2-.6-.4-.9-.5-.4-.1-.7-.1-1.1-.1h-1.7v-.1Zm10.8 6.4c-.1.1-.2.3-.3.5-.1.2-.3.3-.4.4-.1.1-.4.2-.6.3-.2.1-.5.1-.8.1-.6 0-1-.2-1.4-.5-.3-.3-.5-.8-.5-1.4 0-.7.2-1.2.7-1.5.5-.3 1.2-.5 2-.5h1.2v-.5c0-.4-.1-.7-.3-.9-.2-.2-.6-.3-1.2-.3-.4 0-.7.1-1.1.2-.3.1-.7.3-.9.4v-.9c.2-.1.5-.3.9-.4.4-.1.8-.2 1.3-.2.8 0 1.4.2 1.8.5.4.3.6.8.6 1.5v4.3h-1c0-.1 0-.3-.1-.5v-.5l.1-.1Zm-1.9.3c.3 0 .6-.1.8-.2.2-.1.4-.3.6-.5.1-.2.2-.4.3-.5.1-.2.1-.3.1-.4V98h-1c-.6 0-1.1.1-1.4.3-.3.2-.4.5-.4.8 0 .3.1.5.3.7.1.3.4.3.7.3Zm7.1.9c-.2 0-.4.1-.6.1-.3 0-.6 0-.8-.1-.2-.1-.4-.2-.5-.4-.1-.1-.2-.3-.3-.5-.1-.2-.1-.4-.1-.6v-3.9h-.7v-.9h.7v-1.3h1.1v1.3h1.8v.9h-1.8v3.8c0 .3.1.5.2.6.1.1.4.2.7.2.3 0 .6-.1.9-.3v1c-.2 0-.4.1-.6.1Zm5.6-1.2c-.1.1-.2.3-.3.5-.1.2-.3.3-.4.4-.1.1-.4.2-.6.3-.2.1-.5.1-.8.1-.6 0-1-.2-1.4-.5-.3-.3-.5-.8-.5-1.4 0-.7.2-1.2.7-1.5.5-.3 1.2-.5 2-.5h1.2v-.5c0-.4-.1-.7-.3-.9-.2-.2-.6-.3-1.2-.3-.4 0-.7.1-1.1.2-.3.1-.7.3-.9.4v-.9c.2-.1.5-.3.9-.4.4-.1.8-.2 1.3-.2.8 0 1.4.2 1.8.5.4.3.6.8.6 1.5v4.3h-1c0-.1 0-.3-.1-.5v-.5l.1-.1Zm-1.9.3c.3 0 .6-.1.8-.2.2-.1.4-.3.6-.5.1-.2.2-.4.3-.5.1-.2.1-.3.1-.4V98h-1.1c-.6 0-1.1.1-1.4.3-.3.2-.4.5-.4.8 0 .3.1.5.3.7.2.3.4.3.8.3Zm10.5-6.7v7.6h-1.1v-7.6h-2.7v-1h6.4v1h-2.6Zm5 2.7c-.4.2-.6.5-.8.9v4h-1.1v-6.2h.9l.1 1.4c.2-.4.4-.7.8-1 .3-.3.8-.4 1.3-.5v1.2c-.4-.1-.8 0-1.2.2Zm6 3.7c-.1.1-.2.3-.3.5-.1.2-.3.3-.4.4-.1.1-.4.2-.6.3-.2.1-.5.1-.8.1-.6 0-1-.2-1.4-.5-.3-.3-.5-.8-.5-1.4 0-.7.2-1.2.7-1.5.5-.3 1.2-.5 2-.5h1.2v-.5c0-.4-.1-.7-.3-.9-.2-.2-.6-.3-1.2-.3-.4 0-.7.1-1.1.2-.3.1-.7.3-.9.4v-.9c.2-.1.5-.3.9-.4.4-.1.8-.2 1.3-.2.8 0 1.4.2 1.8.5.4.3.6.8.6 1.5v4.3h-1c0-.1 0-.3-.1-.5v-.5l.1-.1Zm-1.8.3c.3 0 .6-.1.8-.2.2-.1.4-.3.6-.5.1-.2.2-.4.3-.5.1-.2.1-.3.1-.4V98h-1.1c-.6 0-1.1.1-1.4.3-.3.2-.4.5-.4.8 0 .3.1.5.3.7.2.3.4.3.8.3Zm7.5-4.5c-.5 0-.9.1-1.2.3-.3.2-.5.5-.7.8v4.2h-1.1v-6.2h1v1.1c.2-.4.4-.7.8-.9.4-.2.8-.3 1.4-.3.6 0 1.1.2 1.5.5.4.3.5.8.5 1.5v4.4h-1.1v-4.3c0-.4-.1-.7-.3-.9-.2-.2-.5-.2-.8-.2Zm5.9 5.5c-.3 0-.6 0-.9-.1-.3-.1-.5-.1-.7-.2-.2-.1-.3-.2-.5-.2s-.2-.2-.3-.2v-1l.3.3c.1.1.3.2.5.3.2.1.4.1.7.2.2.1.5.1.8.1.4 0 .8-.1 1.1-.2.3-.1.4-.4.4-.7 0-.2 0-.3-.1-.4l-.3-.3c-.1-.1-.3-.1-.5-.2s-.4-.1-.6-.1c-.3-.1-.5-.1-.8-.2-.3-.1-.5-.2-.7-.3-.2-.1-.4-.3-.5-.5-.1-.2-.2-.5-.2-.8 0-.6.2-1 .7-1.3.5-.3 1-.5 1.8-.5.4 0 .8 0 1.2.1.3.1.6.2.8.3v.9c-.2-.1-.5-.3-.8-.3-.3-.1-.7-.1-1.1-.1-.5 0-.8.1-1.1.2-.3.1-.4.4-.4.7 0 .2 0 .3.1.4.1.1.2.2.3.2.1.1.3.1.4.1.1 0 .3.1.5.1.3.1.6.1.8.2.3.1.5.2.8.3.3.1.4.3.6.5.1.2.2.5.2.9s-.1.7-.2.9c-.1.2-.3.4-.6.6-.2.1-.5.2-.8.3h-.9Zm5.2-5.5v5.3h-1.1v-5.3h-.8v-.9h.8v-.2c0-.7.2-1.3.6-1.7.4-.4.9-.6 1.6-.6.3 0 .6 0 .8.1v.9c-.1 0-.2-.1-.3-.1h-.4c-.4 0-.7.1-.9.3-.2.2-.3.6-.3 1.1v.2h1.8v.9h-1.8Zm7.8 4.8c-.1.1-.2.1-.3.2-.1.1-.3.1-.5.2s-.4.1-.6.2c-.2 0-.5.1-.8.1-1 0-1.8-.3-2.4-.9-.5-.6-.8-1.4-.8-2.4 0-.5.1-1 .2-1.4.1-.4.4-.7.6-1 .3-.3.6-.5.9-.6.4-.1.8-.2 1.2-.2.4 0 .8.1 1.2.2.4.1.6.4.9.7.3.3.4.7.5 1.1.1.4.1.9 0 1.5h-4.4c0 .7.2 1.2.6 1.5.4.3.9.5 1.6.5.5 0 .9-.1 1.2-.2.3-.1.6-.3.9-.4v.9Zm-2.5-4.8c-.5 0-.8.1-1.2.4-.4.3-.5.7-.6 1.3h3.3c0-.6-.1-1-.4-1.3-.2-.3-.6-.4-1.1-.4Zm5.7.5c-.4.2-.6.5-.8.9v4h-1.1v-6.2h.9l.1 1.4c.2-.4.4-.7.8-1 .3-.3.8-.4 1.3-.5v1.2c-.4-.1-.8 0-1.2.2Z"/>
    <path fill="#5282FF" d="M67 81.4c8.8 0 16 7.2 16 16s-7.2 16-16 16-16-7.2-16-16c0-8.9 7.2-16 16-16Z"/>
    <path fill="#fff" fill-rule="evenodd" d="M60.4 90.5c-.3.3-.4.6-.4.8 0 .2.1.5.4.8.3.3.8.6 1.4.9 1.3.5 3.1.9 5.2.9 2 0 3.9-.3 5.2-.9.6-.3 1.1-.6 1.4-.9.3-.3.4-.6.4-.8 0-.2-.1-.5-.4-.8-.3-.3-.8-.6-1.4-.9-1.3-.5-3.1-.9-5.2-.9-2 0-3.9.3-5.2.9-.6.3-1.1.6-1.4.9Zm-.9-.9c-.5.5-.8 1-.8 1.7v11.4c0 .7.3 1.2.8 1.7s1.1.8 1.8 1.1c1.5.6 3.5 1 5.6 1 2.2 0 4.2-.4 5.6-1 .7-.3 1.4-.7 1.8-1.1.5-.5.8-1 .8-1.7V91.3c0-.7-.3-1.2-.8-1.7s-1.1-.8-1.8-1.1c-1.5-.6-3.5-1-5.6-1-2.2 0-4.2.4-5.6 1-.7.3-1.3.7-1.8 1.1ZM74 99.1v3.6c0 .2-.1.5-.4.8-.3.3-.8.6-1.4.9-1.3.5-3.1.9-5.2.9-2 0-3.9-.3-5.2-.9-.6-.3-1.1-.6-1.4-.9-.3-.3-.4-.6-.4-.8v-3.6c.4.3.8.5 1.4.7 1.5.6 3.5 1 5.6 1 2.2 0 4.2-.4 5.6-1 .6-.1 1-.4 1.4-.7ZM60 97c0 .2.1.5.4.8.3.3.8.6 1.4.9 1.3.5 3.1.9 5.2.9 2 0 3.9-.3 5.2-.9.6-.3 1.1-.6 1.4-.9.3-.3.4-.6.4-.8v-3.6c-.4.3-.8.5-1.4.7-1.5.6-3.5 1-5.6 1-2.2 0-4.2-.4-5.6-1-.5-.2-1-.5-1.4-.7V97Z" clip-rule="evenodd"/>
    <path fill="#5282FF" d="M398 81c8.8 0 16 7.2 16 16s-7.2 16-16 16-16-7.2-16-16c0-8.9 7.2-16 16-16Z"/>
    <path fill="#fff" fill-rule="evenodd" d="M391.4 90.1c-.3.3-.4.6-.4.8 0 .2.1.5.4.8.3.3.8.6 1.4.9 1.3.5 3.1.9 5.2.9 2 0 3.9-.3 5.2-.9.6-.3 1.1-.6 1.4-.9.3-.3.4-.6.4-.8 0-.2-.1-.5-.4-.8-.3-.3-.8-.6-1.4-.9-1.3-.5-3.1-.9-5.2-.9-2 0-3.9.3-5.2.9-.6.3-1.1.6-1.4.9Zm-.9-.9c-.5.5-.8 1-.8 1.7v11.4c0 .7.3 1.2.8 1.7s1.1.8 1.8 1.1c1.5.6 3.5 1 5.6 1 2.2 0 4.2-.4 5.6-1 .7-.3 1.4-.7 1.8-1.1.5-.5.8-1 .8-1.7V90.9c0-.7-.3-1.2-.8-1.7s-1.1-.8-1.8-1.1c-1.5-.6-3.5-1-5.6-1-2.2 0-4.2.4-5.6 1-.7.3-1.3.7-1.8 1.1Zm14.5 9.5v3.6c0 .2-.1.5-.4.8-.3.3-.8.6-1.4.9-1.3.5-3.1.9-5.2.9-2 0-3.9-.3-5.2-.9-.6-.3-1.1-.6-1.4-.9-.3-.3-.4-.6-.4-.8v-3.6c.4.3.8.5 1.4.7 1.5.6 3.5 1 5.6 1 2.2 0 4.2-.4 5.6-1 .6-.1 1-.4 1.4-.7Zm-14-2.1c0 .2.1.5.4.8.3.3.8.6 1.4.9 1.3.5 3.1.9 5.2.9 2 0 3.9-.3 5.2-.9.6-.3 1.1-.6 1.4-.9.3-.3.4-.6.4-.8V93c-.4.3-.8.5-1.4.7-1.5.6-3.5 1-5.6 1-2.2 0-4.2-.4-5.6-1-.5-.2-1-.5-1.4-.7v3.6Z" clip-rule="evenodd"/>
    <path fill="#262626" d="m145 97.4-5-2.887v5.774l5-2.887Zm-56 .5h51.5v-1H89v1Zm250-.5-5-2.887v5.774l5-2.887Zm-56 .5h51.5v-1H283v1Z"/>
    <path stroke="#5282FF" d="M383.238 78.467c-15.424-4.98-22.551 4.747-22.738 9.743-6.995-.262-15 2.79-15 11.79s8.011 11.071 15 11.5c5.5 8.5 16.573 9.494 22.738 5.222 9.762 8.278 25.262 6.778 32.262 0 11.057 4.017 17.526-2.303 20.519-6.527 5.996.224 13.678-4.491 13.903-10.487.225-5.996-6.084-11.236-13.079-11.498-2.423-10.098-14.04-12.535-19.649-9.743-14.799-10.962-30.194-5.467-33.956 0Z"/>
</svg>
